X: 1
T: Larry Redican's?
R: reel
M: C
L: 1/8
K: Fmaj
Q:1/2=85
V:1 cleff=treble
V:2 cleff=bass
[V:1] FG |: AdcA   GcAG   | FAGF   D2FD      | CA, (3A,A,A, CDFG      |[1 AG FA G2 FG   :|2 AGFE    F4     |]
[V:2] z2 |: F,2 C2 E,2 C2 | D,2 C2 [_B,,F,]4 | [A,,E,]4 z2 [_B,,F,]2  |[1 z4 [C,G,]4    :|2 [C,G,]4 [F,C]4 |] 

% TODO: Next time I hear a nice B part, I'll transcribe.
